X:1
T:Down for a Brown
M:6/8
L:1/8
Q:80
C:Rob MacNeil
S:Jig
K:HP
|: {g}Ad{G}d{g}def | \
{gf}g3{a}fed | \
{g}ec{d}A{gef}e2{A}e |
{g}d{e}d{c}d{g}dB{d}A | \
{g}Ad{G}d{g}def | \
{gf}g3{a}fed |
{g}ec{d}A{gef}e2{A}e | \
{g}edc{gde}d3 :: \
a{g}a{g}a{g}afg |
{a}gfd{gef}e3 | \
{g}ec{d}A{gef}e2{A}e | \
{g}d{e}d{c}d{g}dB{d}A|1
a{g}a{g}a{g}afg | \
{a}gfd{gef}e3 | \
{g}ec{d}A{gef}e2{A}e |
{g}edc{gde}d3 :|
